!!!COM: Frye, Walter
!!!CDT: <1443-c1474
!!!OTL: O-florens rosa
!!!AGN: Motet
!!!SCT: Fry2002
!!!SCA: Fry2002
!!!voices: 3
**kern	**kern	**kern
*staff3	*staff2	*staff1
*Ivox	*Ivox	*Ivox
*I"Contratenor	*I"Tenor	*I"Discantus
*I'Ct	*I'T	*I'D
*>[A,B,C,D]	*>[A,B,C,D]	*>[A,B,C,D]
*>A	*>A	*>A
*clefF4	*clefGv2	*clefG2
*k[]	*k[b-]	*k[]
*M2/1	*M2/1	*M2/1
*met(C|)	*met(C|)	*met(C|)
=1-	=1-	=1-
!!LO:TX:X=-34:Z=12:t=Compline antiphon for BVM
0AA	[0A	[0a
=2	=2	=2
1D	0A]	0a]
1F	.	.
=3	=3	=3
1G	1G	1b-i
1D	1F	[1a
=4	=4	=4
1F	0D	2a/]
.	.	2g/
[1A	.	1f
=5	=5	=5
2A\]	0C	1e
2G\	.	.
2F\	.	[1g
2E\	.	.
=6	=6	=6
0D	1r	2g/]
.	.	2f/
.	1F	2e/
.	.	2d/
=7	=7	=7
0AA	0A	1c
.	.	2B/
.	.	2c/
=8	=8	=8
1r	0D	1d
[1F	.	2c/
.	.	2B/
=9	=9	=9
1F]	1r	0A
[1D	[1F	.
=10	=10	=10
1D]	2F/]	1r
.	2D/	.
1r	1F	1a
=11	=11	=11
1C	1E	1g
2D\	1D	[1f
[2F\	.	.
=12	=12	=12
2F\]	1.F	2f/]
2E\	.	2c/
2D\	.	2f/
2C/	2G/	2e/
=13	=13	=13
0AAl	0Al	0cl
!!LO:LB:i:g=z
=14||	=14||	=14||
*>B	*>B	*>B
*clefF4	*clefGv2	*clefG2
*k[]	*k[b-]	*k[]
*M2/1	*M2/1	*M2/1
*met(C|)	*met(C|)	*met(C|)
!!!OMD: O florens rosa
!!section: O florens rosa
0AA	0A	0c
=15	=15	=15
1D	1A	1f
1D	1A	1f
=16	=16	=16
1r	1B-	1g
1G	1G	1b-i
=17	=17	=17
1D	1F	1.a
1D	[1A	.
.	.	2g/
=18	=18	=18
0F	2A/]	1f
.	2G/	.
.	1F	1d
=19	=19	=19
1C	1E	1e
1AA	1A	1c
=20	=20	=20
1D	1D	1d
1E	1G	2c/
.	.	2B/
=21	=21	=21
1F	1F	1A
[1A	1D	[1d
=22	=22	=22
1A]	0E	2d/]
.	.	2c#i/
1G	.	2c#i/
.	.	2B/
=23	=23	=23
1.A	[0D	0d
2G\	.	.
=24	=24	=24
1F	0D]	1r
1D	.	1f
=25	=25	=25
0C	1r	1e
.	1E	1c
=26	=26	=26
1r	1F	1d
1E	1C	1e
=27	=27	=27
1D	1D	1.f
1C	1E	.
.	.	2e/
=28	=28	=28
1BB	1G	1d
1AA	[1A	1c
=29	=29	=29
0D	1A]	1r
.	1D	1f
=30	=30	=30
1C	1G	1e
[1D	1F	1d
=31	=31	=31
1D]	0D	1f
[1GG	.	[1b-i
=32	=32	=32
1GG]	1G	2b-\]
.	.	2a/
1D	1A	[1a
=33	=33	=33
2r	0B-	2a/]
2r	.	2g/
1G	.	2g/
.	.	2f/
=34	=34	=34
1F	0A	0a
[1D	.	.
=35	=35	=35
1D]	0F	1r
[1F	.	1a
=36	=36	=36
2F\]	1r	0a
2D\	.	.
1F	1D	.
=37	=37	=37
0C	1E	0g
.	[1G	.
=38	=38	=38
0GG	1G]	0b-
.	[1D	.
=39	=39	=39
[0D	1D]	0a
.	[1F	.
=40	=40	=40
1D]	1F]	0f
1F	1A	.
=41	=41	=41
1E	1G	1g
1C	1c	1e
=42	=42	=42
1G	1B-	1d
1A	[1A	1c
=43	=43	=43
1F	1A]	1.f
[1A	[1F	.
.	.	2g/
=44	=44	=44
1A]	1F]	1a
1G	1G	1b-i
=45	=45	=45
0F	1D	1.a
.	1F	.
.	.	4g/
.	.	4a/
=46	=46	=46
1C	1E	2g/
.	.	2f/
1D	1F	1f
=47	=47	=47
0C	0G	2e/
.	.	2e/
.	.	2f/
.	.	2e/
=48	=48	=48
1D	1r	0f
[1F	[1F	.
=49	=49	=49
1F]	1F]	0a
1F	[1c	.
=50	=50	=50
1C	2c\]	1g
.	2B-\	.
1F	1A	1f
=51	=51	=51
1G	1G	1.b-
1D	1F	.
.	.	2a/
=52	=52	=52
1r	1B-	1g
1AA	1A	1f
=53	=53	=53
1C	1G	1e
1D	1F	1d
=54	=54	=54
0AA	0A	0c
=55	=55	=55
1r	0D	1.d
[1D	.	.
.	.	2A/
=56	=56	=56
1D]	1r	1B
1C	1E	1c
=57	=57	=57
0BB-	1F	0d
.	1G	.
=58	=58	=58
1AA	0A	1r
1A	.	1c
=59	=59	=59
1G	1B-	0d
1F	[1d	.
=60	=60	=60
1D	1d]	1f
1E	1c	2e/
.	.	[2e/
=61	=61	=61
1F	1A	2e/]
.	.	2c/
1D	1B-	1d
=62	=62	=62
0C	0c	1e
.	.	1c
=63	=63	=63
1r	1A	0f
1D	1F	.
=64	=64	=64
1E	1G	1e
1G	1B-	1d
=65	=65	=65
1A	0A	2c/
.	.	1c
1F	.	.
.	.	2A/
=66	=66	=66
1r	1G	2B/
.	.	2c/
1D	1F	1d
=67	=67	=67
0G	0E	2e/
.	.	1c#i
.	.	2B/
=68	=68	=68
0Al	0Dl	0dl
!!LO:LB:i:g=z
=69||	=69||	=69||
*>C	*>C	*>C
*clefF4	*clefGv2	*clefG2
*k[]	*k[b-]	*k[]
*M2/1	*M2/1	*M2/1
*met(C|)	*met(C|)	*met(C|)
!!!OMD: Clarior aurora
!!section: Clarior aurora
0A	0D	0f
=70	=70	=70
1G	1E	0c
1F	[1F	.
=71	=71	=71
1A	1F]	0d
1B-i	[1G	.
=72	=72	=72
1G	1G]	0e
1r	[1A	.
=73	=73	=73
0D	1A]	0f
.	[1B-	.
=74	=74	=74
1BB-i	1B-]	1d
1C	[1A	1c
=75	=75	=75
0D	1A]	0f
.	1F	.
=76	=76	=76
1C	1G	1e
[1D	1F	2d/
.	.	2c/
=77	=77	=77
1D]	1D	1B
1E	1C	[1A
=78	=78	=78
0D	0F	1A]
.	.	1d
=79	=79	=79
0AA	0E	1e
.	.	2c#i/
.	.	2B/
=80	=80	=80
1r	0D	0d
[1D	.	.
=81	=81	=81
2D\]	1r	0f
2E\	.	.
1F	[1A	.
=82	=82	=82
0C	1A]	0e
.	1G	.
=83	=83	=83
1D	1F	1d
[1AA	1E	[1c
=84	=84	=84
0AA]	0A	1c]
.	.	1f
=85	=85	=85
0C	1G	1e
.	1F	1c
=86	=86	=86
1BB	1D	1.d
1GG	[1G	.
.	.	2c/
=87	=87	=87
1r	2G/]	2B/
.	2F/	2A/
1C	1G	[1G
=88	=88	=88
0C	1E	1G]
.	1C	[1c
=89	=89	=89
0GG	0D	1c]
.	.	2B/
.	.	2A/
=90	=90	=90
0C	1r	0c
.	1C	.
=91	=91	=91
1D	0F	1r
1F	.	1d
=92	=92	=92
0C	0E	0e
=93	=93	=93
0AA	0A	1c
.	.	[1f
=94	=94	=94
1r	0G	1f]
[1C	.	[1e
=95	=95	=95
1C]	0c	1e]
1AA	.	[1a
=96	=96	=96
1r	0B-	1a]
1GG	.	[1g
=97	=97	=97
1D	0A	1g]
1F	.	1f
=98	=98	=98
0C	0c	1.e
.	.	2d/
=99	=99	=99
1GG	1B-	1d
1AA	[1A	1c
=100	=100	=100
1D	1A]	0B
1E	1G#i	.
=101	=101	=101
0AA	0A	0A
=102	=102	=102
1A	0D	1r
1F	.	1a
=103	=103	=103
1.G	1r	0b-i
.	[1d	.
2F\	.	.
=104	=104	=104
1D	1d]	0a
1F	[1c	.
=105	=105	=105
1C	1c]	0g
1GG	[1B-	.
=106	=106	=106
0D	1B-]	0f
.	1A	.
=107	=107	=107
1r	0G	0b-i
1GG	.	.
=108	=108	=108
0D	1r	0a
.	1F	.
=109	=109	=109
1r	0B-	1g
1G	.	[1g
=110	=110	=110
1B-	1G	1g]
1A	1A	1f
=111	=111	=111
1G	1B-	1g
1F	1c	1a
=112	=112	=112
0Dl	0dl	0fl
!!LO:LB:i:g=z
=113||	=113||	=113||
*>D	*>D	*>D
*clefF4	*clefGv2	*clefG2
*k[]	*k[b-]	*k[]
*M2/1	*M2/1	*M2/1
*met(C|)	*met(C|)	*met(C|)
!!!OMD: Ut simus digni
!!section: Ut simus digni
0G	0G	0g
=114	=114	=114
1D	1A	1f
1D	1A	1f
=115	=115	=115
0G	1G	0g
.	[1B-	.
=116	=116	=116
1G	1B-]	1d
1C	1c	1e
=117	=117	=117
1r	1B-	1d
1F	[1A	1c
=118	=118	=118
0G	2A/]	0B-i
.	2G/	.
.	[1G	.
=119	=119	=119
0D	1G]	0A
.	1F#i	.
=120	=120	=120
1E	0G	1G
[1G	.	[1B-i
=121	=121	=121
2G\]	1d	1B-]
2F\	.	.
1F	1c	1A
=122	=122	=122
0G	1B-	0G
.	[1G	.
=123	=123	=123
1.B-	2G/]	1.d
.	2A/	.
.	2B-\	.
2A\	2c\	2e/
=124	=124	=124
1F	1A	1f
1E	[1G	1g
=125	=125	=125
1G	1G]	1b-
1D	1F	[1a
=126	=126	=126
0G	0B-	2a/]
.	.	2g/
.	.	[1g
=127	=127	=127
1r	0A	2g/]
.	.	4f#i/
.	.	4g/
1D	.	2f#i/
.	.	2e/
=128	=128	=128
1E	[0G	0g
1F	.	.
=129	=129	=129
1G	0G]	1r
1B-i	.	1d
=130	=130	=130
1A	1r	1e
1A	1D	1f
=131	=131	=131
1G	1E	1g
1D	1F	1a
=132	=132	=132
1r	1G	1.b-
1D	1A	.
.	.	2a/
=133	=133	=133
1G	1B-	1g
[1A	1A	1f
=134	=134	=134
2A\]	1c	1e
2G\	.	.
1F	[1d	1d
=135	=135	=135
0D	0d_	0f
=136	=136	=136
1r	1d]	0e
1A	1c#i	.
=137	=137	=137
1B-i	0d	0d
1G	.	.
=138	=138	=138
1F	0A	1r
1E	.	1a
=139	=139	=139
1r	1B-	1g
1G	1B-	1g
=140	=140	=140
0D	1A	1a
.	1d	1f
=141	=141	=141
1AA	1c	1e
[1D	1B-	1d
=142	=142	=142
1D]	1A	1f
1GG	1G	[1b-i
=143	=143	=143
0D	1.F	2b-\]
.	.	2a/
.	.	1a
.	2D/	.
=144	=144	=144
1r	1E	1g
1D	1F	[1a
=145	=145	=145
1F	0D	1a]
[1A	.	1f
=146	=146	=146
2A\]	1r	0e
2G\	.	.
2F\	1C	.
2E\	.	.
=147	=147	=147
1D	1F	1r
1F	1F	1a
=148	=148	=148
0C	1E	1g
.	2r	1g
.	[2A/	.
=149	=149	=149
1AA	1.A]	1f
1C	.	1e
.	[2G/	.
=150	=150	=150
0D	2G/]	1r
.	1F	.
.	.	1a
.	2F/	.
=151	=151	=151
0r	1E	0g
.	[1D	.
=152	=152	=152
1D	1D]	1f
1AA	1C	1e
=153	=153	=153
1D	1F	1d
1C	1G	1e
=154	=154	=154
0AA	0A	0c
=155	=155	=155
1r	0D	1.d
[1D	.	.
.	.	2A/
=156	=156	=156
1D]	1r	1B
1C	1E	1c
=157	=157	=157
0BB-	1F	0d
.	1G	.
=158	=158	=158
1AA	0A	1r
1A	.	1c
=159	=159	=159
1G	1B-	0d
1F	[1d	.
=160	=160	=160
1D	1d]	1f
1E	1c	2e/
.	.	[2e/
=161	=161	=161
1F	1A	2e/]
.	.	2c/
1D	1B-	1d
=162	=162	=162
0C	0c	1e
.	.	1c
=163	=163	=163
1r	1A	0f
1D	1F	.
=164	=164	=164
1E	1G	1e
1G	1B-	[1d
=165	=165	=165
1A	0A	2d/]
.	.	2c/
1F	.	1c
=166	=166	=166
1r	1G	2A/
.	.	2B/
1D	1F	2c/
.	.	2d/
=167	=167	=167
0G	0E	2e/
.	.	1c#i
.	.	2B/
=168	=168	=168
0Al	0Dl	0dl
==	==	==
*-	*-	*-
!!!RDF**kern: l=long note in original notation
!!!RDF**kern: i=editorial accidental
!!!ENC: Brad Pickard 05/21/2015
!!!END: 2015/06/03/
!!!EED: Jesse Rodin
!!!EEV: 2018/01/18/
!!!ONB: Translated from MusicXML and edited on 2018/01/18/ by Craig Sapp
!!muse2ps: C^@{COM}^i2I150v95,95,150Q16
